;FLAVOR:Marlin
;TIME:23805
;Filament used: 22.4221m
;Layer height: 0.28
;MINX:61.5
;MINY:43.25
;MINZ:0.28
;MAXX:238.5
;MAXY:257.865
;MAXZ:3.36
;Generated with Cura_SteamEngine 5.3.1
M140 S50
M105
M190 S50
M104 S200
M105
M109 S200
M82 ;absolute extrusion mode
M201 X500.00 Y500.00 Z100.00 E5000.00 ;Setup machine max acceleration
M203 X500.00 Y500.00 Z10.00 E50.00 ;Setup machine max feedrate
M204 P500.00 R1000.00 T500.00 ;Setup Print/Retract/Travel acceleration
M205 X8.00 Y8.00 Z0.40 E5.00 ;Setup Jerk
M220 S100 ;Reset Feedrate
M221 S100 ;Reset Flowrate

G28 ;Home

G92 E0 ;Reset Extruder
G1 Z2.0 F3000 ;Move Z Axis up
G1 X10.1 Y20 Z0.28 F5000.0 ;Move to start position
G1 X10.1 Y200.0 Z0.28 F1500.0 E15 ;Draw the first line
G1 X10.4 Y200.0 Z0.28 F5000.0 ;Move to side a little
G1 X10.4 Y20 Z0.28 F1500.0 E30 ;Draw the second line
G92 E0 ;Reset Extruder
G1 Z2.0 F3000 ;Move Z Axis up

G92 E0
G92 E0
G1 F2700 E-5
;LAYER_COUNT:13
;LAYER:0
M107
G0 F6000 X64.288 Y48.221 Z0.28
;TYPE:SKIRT
G1 F2700 E0
G1 F1200 X64.855 Y47.517 E0.04209
G1 X65.481 Y46.867 E0.08411
G1 X66.162 Y46.274 E0.12616
G1 X66.894 Y45.744 E0.16824
G1 X67.669 Y45.281 E0.21028
G1 X68.482 Y44.888 E0.25233
G1 X69.327 Y44.568 E0.2944
G1 X70.196 Y44.325 E0.33642
G1 X71.084 Y44.159 E0.37848
G1 X72.223 Y44.063 E0.43171
G1 X72.83 Y44.05 E0.45998
G1 X226.939 Y44.051 E7.63594
G1 X227.637 Y44.061 E7.66844
G1 X228.539 Y44.114 E7.71052
G1 X229.432 Y44.246 E7.75255
G1 X230.31 Y44.457 E7.7946
G1 X231.166 Y44.745 E7.83665
G1 X231.993 Y45.107 E7.87869
G1 X232.785 Y45.542 E7.92076
G1 X233.536 Y46.044 E7.96283
G1 X234.239 Y46.611 E8.00488
G1 X234.889 Y47.238 E8.04693
G1 X235.481 Y47.92 E8.08899
G1 X236.011 Y48.651 E8.13103
G1 X236.473 Y49.427 E8.17308
G1 X236.866 Y50.24 E8.21513
G1 X237.184 Y51.085 E8.25717
G1 X237.427 Y51.955 E8.29923
G1 X237.592 Y52.843 E8.34129
G1 X237.687 Y53.973 E8.39409
G1 X237.7 Y54.58 E8.42236
G1 X237.699 Y163.667 E13.50191
G1 X237.671 Y165.587 E13.59132
G1 X237.654 Y166.181 E13.61899
G1 X237.645 Y167.503 E13.68055
G1 X237.644 Y246.283 E17.34888
G1 X237.633 Y247.01 E17.38274
G1 X237.579 Y247.912 E17.42481
G1 X237.446 Y248.805 E17.46685
G1 X237.234 Y249.683 E17.50891
G1 X236.946 Y250.539 E17.55096
G1 X236.583 Y251.366 E17.59302
G1 X236.148 Y252.157 E17.63505
G1 X235.645 Y252.907 E17.6771
G1 X235.078 Y253.61 E17.71916
G1 X234.45 Y254.26 E17.76124
G1 X233.768 Y254.851 E17.80327
G1 X233.036 Y255.38 E17.84532
G1 X232.26 Y255.842 E17.88737
G1 X231.446 Y256.234 E17.92944
G1 X230.601 Y256.552 E17.97148
G1 X229.731 Y256.794 E18.01353
G1 X228.843 Y256.958 E18.05558
G1 X227.722 Y257.052 E18.10796
G1 X227.115 Y257.065 E18.13623
G1 X77.02 Y257.064 E25.12529
G1 X76.322 Y257.055 E25.15779
G1 X75.421 Y257.004 E25.19981
G1 X74.527 Y256.872 E25.24189
G1 X73.649 Y256.663 E25.28392
G1 X72.792 Y256.376 E25.326
G1 X71.965 Y256.015 E25.36802
G1 X71.172 Y255.582 E25.41009
G1 X70.421 Y255.081 E25.45213
G1 X69.717 Y254.515 E25.49419
G1 X69.066 Y253.889 E25.53624
G1 X68.473 Y253.208 E25.57829
G1 X67.943 Y252.477 E25.62033
G1 X67.479 Y251.702 E25.66239
G1 X67.085 Y250.889 E25.70446
G1 X66.765 Y250.045 E25.74649
G1 X66.521 Y249.175 E25.78857
G1 X66.355 Y248.287 E25.83063
G1 X66.258 Y247.132 E25.8846
G1 X66.245 Y246.523 E25.91297
G1 X66.245 Y192.099 E28.44718
G1 X66.208 Y189.493 E28.56853
G1 X66.099 Y186.925 E28.68822
G1 X65.922 Y184.423 E28.80501
G1 X65.673 Y181.91 E28.9226
G1 X65.345 Y179.347 E29.04292
G1 X64.954 Y176.862 E29.16006
G1 X64.494 Y174.386 E29.27732
G1 X63.95 Y171.859 E29.39768
G1 X63.356 Y169.434 E29.51394
G1 X62.675 Y166.957 E29.63356
G1 X62.474 Y166.077 E29.67559
G1 X62.352 Y165.182 E29.71765
G1 X62.315 Y164.559 E29.74671
G1 X62.3 Y163.92 E29.77648
G1 X62.301 Y54.786 E34.85821
G1 X62.31 Y54.121 E34.88918
G1 X62.362 Y53.219 E34.93125
G1 X62.494 Y52.326 E34.97328
G1 X62.704 Y51.448 E35.01532
G1 X62.991 Y50.591 E35.0574
G1 X63.353 Y49.764 E35.09944
G1 X63.786 Y48.972 E35.14147
G1 X64.288 Y48.221 E35.18353
G0 F6000 X63.976 Y47.97
G1 F1200 X64.543 Y47.266 E35.22563
G1 X65.218 Y46.565 E35.27094
G1 X65.899 Y45.972 E35.31299
G1 X66.659 Y45.42 E35.35673
G1 X67.495 Y44.921 E35.40206
G1 X68.34 Y44.514 E35.44573
G1 X69.185 Y44.194 E35.48781
G1 X70.122 Y43.932 E35.53311
G1 X71.05 Y43.76 E35.57706
G1 X72.189 Y43.664 E35.63028
G1 X72.83 Y43.65 E35.66014
G1 X226.945 Y43.651 E42.83638
G1 X227.66 Y43.662 E42.86968
G1 X228.597 Y43.718 E42.91338
G1 X229.49 Y43.85 E42.95542
G1 X230.438 Y44.078 E43.00082
G1 X231.294 Y44.366 E43.04287
G1 X232.186 Y44.756 E43.0882
G1 X232.978 Y45.191 E43.13028
G1 X233.758 Y45.711 E43.17393
G1 X234.517 Y46.323 E43.21933
G1 X235.167 Y46.95 E43.26138
G1 X235.805 Y47.685 E43.3067
G1 X236.355 Y48.446 E43.35043
G1 X236.817 Y49.222 E43.39248
G1 X237.24 Y50.099 E43.43782
G1 X237.569 Y50.977 E43.48148
G1 X237.82 Y51.882 E43.52521
G1 X237.991 Y52.809 E43.5691
G1 X238.086 Y53.939 E43.6219
G1 X238.1 Y54.58 E43.65176
G1 X238.099 Y163.673 E48.73159
G1 X238.071 Y165.598 E48.82123
G1 X238.054 Y166.192 E48.8489
G1 X238.045 Y167.506 E48.91009
G1 X238.044 Y246.289 E52.57856
G1 X238.032 Y247.034 E52.61325
G1 X237.975 Y247.971 E52.65696
G1 X237.842 Y248.864 E52.699
G1 X237.623 Y249.777 E52.74272
G1 X237.325 Y250.667 E52.78642
G1 X236.949 Y251.527 E52.83013
G1 X236.48 Y252.38 E52.87546
G1 X235.977 Y253.13 E52.91751
G1 X235.366 Y253.888 E52.96284
G1 X234.738 Y254.538 E53.00493
G1 X234.03 Y255.153 E53.0486
G1 X233.241 Y255.724 E53.09395
G1 X232.465 Y256.186 E53.136
G1 X231.587 Y256.608 E53.18136
G1 X230.708 Y256.937 E53.22506
G1 X229.804 Y257.187 E53.26874
G1 X228.876 Y257.357 E53.31267
G1 X227.731 Y257.452 E53.36617
G1 X227.124 Y257.465 E53.39444
G1 X77.015 Y257.464 E60.38414
G1 X76.299 Y257.454 E60.41748
G1 X75.363 Y257.4 E60.46114
G1 X74.469 Y257.268 E60.50322
G1 X73.556 Y257.052 E60.54691
G1 X72.632 Y256.743 E60.59228
G1 X71.805 Y256.382 E60.63429
G1 X70.95 Y255.915 E60.67966
G1 X70.17 Y255.393 E60.72336
G1 X69.466 Y254.827 E60.76542
G1 X68.764 Y254.152 E60.81077
G1 X68.171 Y253.471 E60.85282
G1 X67.619 Y252.712 E60.89652
G1 X67.119 Y251.876 E60.94188
G1 X66.711 Y251.031 E60.98557
G1 X66.391 Y250.187 E61.0276
G1 X66.128 Y249.249 E61.07296
G1 X65.956 Y248.32 E61.11695
G1 X65.858 Y247.141 E61.17204
G1 X65.845 Y246.532 E61.20041
G1 X65.845 Y192.099 E63.73504
G1 X65.808 Y189.499 E63.85611
G1 X65.699 Y186.942 E63.97529
G1 X65.523 Y184.451 E64.09157
G1 X65.276 Y181.961 E64.20808
G1 X64.948 Y179.398 E64.3284
G1 X64.559 Y176.924 E64.44501
G1 X64.101 Y174.459 E64.56176
G1 X63.561 Y171.954 E64.68108
G1 X62.967 Y169.529 E64.79734
G1 X62.285 Y167.046 E64.91724
G1 X62.084 Y166.166 E64.95927
G1 X61.953 Y165.206 E65.00439
G1 X61.915 Y164.568 E65.03415
G1 X61.9 Y163.92 E65.06433
G1 X61.901 Y54.781 E70.1463
G1 X61.911 Y54.098 E70.17811
G1 X61.966 Y53.161 E70.22181
G1 X62.098 Y52.268 E70.26384
G1 X62.315 Y51.355 E70.30754
G1 X62.612 Y50.464 E70.35127
G1 X63.002 Y49.572 E70.39661
G1 X63.453 Y48.75 E70.44026
G1 X63.976 Y47.97 E70.48399
G0 F6000 X63.664 Y47.719
G1 F1200 X64.231 Y47.015 E70.52609
G1 X64.955 Y46.263 E70.57469
G1 X65.636 Y45.67 E70.61674
G1 X66.424 Y45.096 E70.66214
G1 X67.321 Y44.561 E70.71077
G1 X68.198 Y44.14 E70.75607
G1 X69.043 Y43.82 E70.79814
G1 X70.049 Y43.539 E70.84678
G1 X71.016 Y43.361 E70.89256
G1 X72.155 Y43.265 E70.94579
G1 X72.83 Y43.25 E70.97722
G1 X226.951 Y43.251 E78.15374
G1 X227.684 Y43.263 E78.18788
G1 X228.655 Y43.322 E78.23318
G1 X229.584 Y43.461 E78.27692
G1 X230.532 Y43.689 E78.32232
G1 X231.454 Y43.999 E78.36761
G1 X232.379 Y44.405 E78.41465
G1 X233.171 Y44.84 E78.45673
G1 X233.98 Y45.378 E78.50197
G1 X234.795 Y46.035 E78.55071
G1 X235.445 Y46.662 E78.59276
G1 X236.107 Y47.423 E78.63973
G1 X236.699 Y48.241 E78.68675
G1 X237.161 Y49.017 E78.7288
G1 X237.615 Y49.959 E78.77749
G1 X237.944 Y50.837 E78.82115
G1 X238.213 Y51.809 E78.86811
G1 X238.39 Y52.775 E78.91384
G1 X238.485 Y53.905 E78.96665
G1 X238.5 Y54.58 E78.99809
G1 X238.499 Y163.679 E84.07819
G1 X238.471 Y165.609 E84.16807
G1 X238.454 Y166.203 E84.19574
G1 X238.445 Y167.509 E84.25656
G1 X238.444 Y246.295 E87.92516
G1 X238.431 Y247.058 E87.9607
G1 X238.371 Y248.03 E88.00604
G1 X238.238 Y248.923 E88.04808
G1 X238.012 Y249.87 E88.09342
G1 X237.692 Y250.827 E88.1404
G1 X237.3 Y251.72 E88.18582
G1 X236.831 Y252.573 E88.23114
G1 X236.309 Y253.353 E88.27485
G1 X235.654 Y254.166 E88.32346
G1 X235.026 Y254.816 E88.36555
G1 X234.265 Y255.477 E88.41248
G1 X233.446 Y256.068 E88.45951
G1 X232.67 Y256.53 E88.50156
G1 X231.727 Y256.983 E88.55028
G1 X230.815 Y257.323 E88.5956
G1 X229.911 Y257.573 E88.63927
G1 X228.909 Y257.756 E88.6867
G1 X227.764 Y257.851 E88.7402
G1 X227.124 Y257.865 E88.77001
G1 X77.009 Y257.864 E95.75999
G1 X76.276 Y257.853 E95.79413
G1 X75.305 Y257.796 E95.83942
G1 X74.411 Y257.664 E95.8815
G1 X73.429 Y257.431 E95.92849
G1 X72.472 Y257.11 E95.9755
G1 X71.645 Y256.749 E96.01751
G1 X70.758 Y256.266 E96.06454
G1 X69.919 Y255.705 E96.11154
G1 X69.215 Y255.139 E96.1536
G1 X68.462 Y254.415 E96.20224
G1 X67.869 Y253.734 E96.24429
G1 X67.276 Y252.917 E96.2913
G1 X66.759 Y252.05 E96.3383
G1 X66.337 Y251.173 E96.38362
G1 X66.017 Y250.329 E96.42565
G1 X65.743 Y249.357 E96.47267
G1 X65.557 Y248.353 E96.52022
G1 X65.458 Y247.15 E96.57643
G1 X65.445 Y246.541 E96.60479
G1 X65.445 Y192.099 E99.13984
G1 X65.408 Y189.505 E99.26064
G1 X65.299 Y186.959 E99.3793
G1 X65.124 Y184.479 E99.49506
G1 X64.879 Y182.012 E99.6105
G1 X64.551 Y179.449 E99.73082
G1 X64.164 Y176.986 E99.84692
G1 X63.708 Y174.532 E99.96314
G1 X63.172 Y172.049 E100.08142
G1 X62.578 Y169.624 E100.19768
G1 X61.895 Y167.135 E100.31786
G1 X61.694 Y166.255 E100.35989
G1 X61.554 Y165.23 E100.40806
G1 X61.515 Y164.577 E100.43853
G1 X61.5 Y163.92 E100.46913
G1 X61.501 Y54.775 E105.55137
G1 X61.512 Y54.075 E105.58397
G1 X61.57 Y53.103 E105.62931
G1 X61.702 Y52.21 E105.67135
G1 X61.926 Y51.263 E105.71666
G1 X62.245 Y50.304 E105.76372
G1 X62.635 Y49.412 E105.80905
G1 X63.102 Y48.558 E105.85438
G1 X63.664 Y47.719 E105.9014
G1 F2700 E100.9014
;MESH:BoxTop.STL
G0 F6000 X76.719 Y59.251
G0 X81.622 Y159.85
;TYPE:WALL-INNER
G1 F2700 E105.9014
G1 F1200 X77.388 Y159.85 E106.09855
G1 X77.192 Y159.766 E106.10848
G1 X76.984 Y159.558 E106.12218
G1 X76.9 Y159.25 E106.13704
G1 X76.9 Y59.138 E110.79868
G1 X76.984 Y58.942 E110.80861
G1 X77.192 Y58.734 E110.8223
G1 X77.388 Y58.65 E110.83223
G1 X81.636 Y58.65 E111.03004
G1 X81.95 Y58.851 E111.0474
G1 X82.1 Y59.133 E111.06227
G1 X82.098 Y159.303 E115.72661
G1 X82.03 Y159.533 E115.73777
G1 X81.831 Y159.751 E115.75152
G1 X81.622 Y159.85 E115.76229
G1 F2700 E110.76229
G0 F6000 X82.279 Y159.318
G0 X86.721 Y159.318
G0 X91.622 Y159.85
G1 F2700 E115.76229
G1 F1200 X87.378 Y159.85 E115.95991
G1 X87.169 Y159.751 E115.97067
G1 X86.97 Y159.533 E115.98442
G1 X86.902 Y159.303 E115.99559
G1 X86.9 Y59.133 E120.65992
G1 X87.05 Y58.851 E120.67479
G1 X87.364 Y58.65 E120.69215
G1 X91.636 Y58.65 E120.89108
G1 X91.95 Y58.851 E120.90844
G1 X92.1 Y59.133 E120.92331
G1 X92.098 Y159.303 E125.58765
G1 X92.03 Y159.533 E125.59881
G1 X91.831 Y159.751 E125.61256
G1 X91.622 Y159.85 E125.62333
G1 F2700 E120.62333
G0 F6000 X92.279 Y159.318
G0 X96.721 Y159.318
G0 X101.622 Y159.85
G1 F2700 E125.62333
G1 F1200 X97.378 Y159.85 E125.82094
G1 X97.169 Y159.751 E125.83171
G1 X96.97 Y159.533 E125.84546
G1 X96.902 Y159.303 E125.85663
G1 X96.9 Y59.133 E130.52096
G1 X97.05 Y58.851 E130.53583
G1 X97.364 Y58.65 E130.55319
G1 X101.636 Y58.65 E130.75212
G1 X101.95 Y58.851 E130.76948
G1 X102.1 Y59.133 E130.78435
G1 X102.098 Y159.303 E135.44868
G1 X102.03 Y159.533 E135.45985
G1 X101.831 Y159.751 E135.4736
G1 X101.622 Y159.85 E135.48436
G1 F2700 E130.48436
G0 F6000 X102.279 Y159.318
G0 X106.721 Y159.318
G0 X111.622 Y159.85
G1 F2700 E135.48436
G1 F1200 X107.378 Y159.85 E135.68198
G1 X107.169 Y159.751 E135.69275
G1 X106.97 Y159.533 E135.7065
G1 X106.902 Y159.303 E135.71766
G1 X106.9 Y59.133 E140.382
G1 X107.05 Y58.851 E140.39687
G1 X107.364 Y58.65 E140.41423
G1 X111.636 Y58.65 E140.61315
G1 X111.95 Y58.851 E140.63051
G1 X112.1 Y59.133 E140.64539
G1 X112.098 Y159.303 E145.30972
G1 X112.03 Y159.533 E145.32089
G1 X111.831 Y159.751 E145.33464
G1 X111.622 Y159.85 E145.3454
G1 F2700 E140.3454
G0 F6000 X112.279 Y159.318
G0 X116.721 Y159.318
G0 X121.622 Y159.85
G1 F2700 E145.3454
G1 F1200 X117.378 Y159.85 E145.54302
G1 X117.169 Y159.751 E145.55379
G1 X116.97 Y159.533 E145.56753
G1 X116.902 Y159.303 E145.5787
G1 X116.9 Y59.133 E150.24304
G1 X117.05 Y58.851 E150.25791
G1 X117.364 Y58.65 E150.27527
G1 X121.636 Y58.65 E150.47419
G1 X121.95 Y58.851 E150.49155
G1 X122.1 Y59.133 E150.50643
G1 X122.098 Y159.303 E155.17076
G1 X122.03 Y159.533 E155.18193
G1 X121.831 Y159.751 E155.19567
G1 X121.622 Y159.85 E155.20644
G1 F2700 E150.20644
G0 F6000 X122.279 Y159.318
G0 X126.721 Y159.318
G0 X131.622 Y159.85
G1 F2700 E155.20644
G1 F1200 X127.378 Y159.85 E155.40406
G1 X127.169 Y159.751 E155.41483
G1 X126.97 Y159.533 E155.42857
G1 X126.902 Y159.303 E155.43974
G1 X126.9 Y59.133 E160.10408
G1 X127.05 Y58.851 E160.11895
G1 X127.364 Y58.65 E160.13631
G1 X131.636 Y58.65 E160.33523
G1 X131.95 Y58.851 E160.35259
G1 X132.1 Y59.133 E160.36747
G1 X132.098 Y159.303 E165.0318
G1 X132.03 Y159.533 E165.04297
G1 X131.831 Y159.751 E165.05671
G1 X131.622 Y159.85 E165.06748
G1 F2700 E160.06748
G0 F6000 X132.279 Y159.318
G0 X136.721 Y159.318
G0 X141.622 Y159.85
G1 F2700 E165.06748
G1 F1200 X137.378 Y159.85 E165.2651
G1 X137.169 Y159.751 E165.27587
G1 X136.97 Y159.533 E165.28961
G1 X136.902 Y159.303 E165.30078
G1 X136.9 Y59.133 E169.96512
G1 X137.05 Y58.851 E169.97999
G1 X137.364 Y58.65 E169.99735
G1 X141.636 Y58.65 E170.19627
G1 X141.95 Y58.851 E170.21363
G1 X142.1 Y59.133 E170.2285
G1 X142.098 Y159.303 E174.89284
G1 X142.03 Y159.533 E174.90401
G1 X141.831 Y159.751 E174.91775
G1 X141.622 Y159.85 E174.92852
G1 F2700 E169.92852
G0 F6000 X142.279 Y159.318
G0 X146.721 Y159.318
G0 X151.622 Y159.85
G1 F2700 E174.92852
G1 F1200 X147.378 Y159.85 E175.12614
G1 X147.169 Y159.751 E175.13691
G1 X146.97 Y159.533 E175.15065
G1 X146.902 Y159.303 E175.16182
G1 X146.9 Y59.133 E179.82615
G1 X147.05 Y58.851 E179.84103
G1 X147.364 Y58.65 E179.85839
G1 X151.636 Y58.65 E180.05731
G1 X151.95 Y58.851 E180.07467
G1 X152.1 Y59.133 E180.08954
G1 X152.098 Y159.303 E184.75388
G1 X152.03 Y159.533 E184.76505
G1 X151.831 Y159.751 E184.77879
G1 X151.622 Y159.85 E184.78956
G1 F2700 E179.78956
G0 F6000 X152.279 Y159.318
G0 X156.721 Y159.318
G0 X157.378 Y159.85
G1 F2700 E184.78956
G1 F1200 X157.169 Y159.751 E184.80033
G1 X156.97 Y159.533 E184.81407
G1 X156.902 Y159.303 E184.82524
G1 X156.9 Y59.133 E189.48957
G1 X157.05 Y58.851 E189.50445
G1 X157.364 Y58.65 E189.52181
G1 X161.636 Y58.65 E189.72073
G1 X161.95 Y58.851 E189.73809
G1 X162.1 Y59.133 E189.75296
G1 X162.098 Y159.303 E194.4173
G1 X162.03 Y159.533 E194.42847
G1 X161.831 Y159.751 E194.44221
G1 X161.622 Y159.85 E194.45298
G1 X157.378 Y159.85 E194.6506
G1 F2700 E189.6506
G0 F6000 X161.928 Y159.678
G0 X162.279 Y159.318
G0 X166.721 Y159.318
G0 X167.378 Y159.85
G1 F2700 E194.6506
G1 F1200 X167.169 Y159.751 E194.66137
G1 X166.97 Y159.533 E194.67511
G1 X166.902 Y159.303 E194.68628
G1 X166.9 Y59.133 E199.35061
G1 X167.05 Y58.851 E199.36549
G1 X167.364 Y58.65 E199.38285
G1 X171.636 Y58.65 E199.58177
G1 X171.95 Y58.851 E199.59913
G1 X172.1 Y59.133 E199.614
G1 X172.098 Y159.303 E204.27834
G1 X172.03 Y159.533 E204.2895
G1 X171.831 Y159.751 E204.30325
G1 X171.622 Y159.85 E204.31402
G1 X167.378 Y159.85 E204.51164
G1 F2700 E199.51164
G0 F6000 X171.928 Y159.678
G0 X172.279 Y159.318
G0 X176.721 Y159.318
G0 X177.378 Y159.85
G1 F2700 E204.51164
G1 F1200 X177.169 Y159.751 E204.5224
G1 X176.97 Y159.533 E204.53615
G1 X176.902 Y159.303 E204.54732
G1 X176.9 Y59.133 E209.21165
G1 X177.05 Y58.851 E209.22652
G1 X177.364 Y58.65 E209.24389
G1 X181.636 Y58.65 E209.44281
G1 X181.95 Y58.851 E209.46017
G1 X182.1 Y59.133 E209.47504
G1 X182.098 Y159.303 E214.13938
G1 X182.03 Y159.533 E214.15054
G1 X181.831 Y159.751 E214.16429
G1 X181.622 Y159.85 E214.17506
G1 X177.378 Y159.85 E214.37267
G1 F2700 E209.37267
G0 F6000 X181.928 Y159.678
G0 X182.279 Y159.318
G0 X186.721 Y159.318
G0 X187.378 Y159.85
G1 F2700 E214.37267
