;FLAVOR:Marlin
;TIME:30283
;Filament used: 30.165m
;Layer height: 0.28
;MINX:19.86
;MINY:44.886
;MINZ:0.28
;MAXX:275.368
;MAXY:289.15
;MAXZ:2.24
;Generated with Cura_SteamEngine 5.3.1
M140 S50
M105
M190 S50
M104 S200
M105
M109 S200
M82 ;absolute extrusion mode
M201 X500.00 Y500.00 Z100.00 E5000.00 ;Setup machine max acceleration
M203 X500.00 Y500.00 Z10.00 E50.00 ;Setup machine max feedrate
M204 P500.00 R1000.00 T500.00 ;Setup Print/Retract/Travel acceleration
M205 X8.00 Y8.00 Z0.40 E5.00 ;Setup Jerk
M220 S100 ;Reset Feedrate
M221 S100 ;Reset Flowrate

G28 ;Home

G92 E0 ;Reset Extruder
G1 Z2.0 F3000 ;Move Z Axis up
G1 X10.1 Y20 Z0.28 F5000.0 ;Move to start position
G1 X10.1 Y200.0 Z0.28 F1500.0 E15 ;Draw the first line
G1 X10.4 Y200.0 Z0.28 F5000.0 ;Move to side a little
G1 X10.4 Y20 Z0.28 F1500.0 E30 ;Draw the second line
G92 E0 ;Reset Extruder
G1 Z2.0 F3000 ;Move Z Axis up

G92 E0
G92 E0
G1 F2700 E-5
;LAYER_COUNT:8
;LAYER:0
M107
G0 F6000 X27.293 Y57.144 Z0.28
;TYPE:SKIRT
G1 F2700 E0
G1 F1200 X28.138 Y56.825 E0.04206
G1 X29.008 Y56.582 E0.08412
G1 X29.896 Y56.418 E0.12617
G1 X31.024 Y56.323 E0.17888
G1 X31.631 Y56.31 E0.20715
G1 X139.448 Y56.31 E5.22756
G1 X142.054 Y56.273 E5.34892
G1 X144.619 Y56.164 E5.46846
G1 X147.126 Y55.986 E5.58549
G1 X149.667 Y55.735 E5.70439
G1 X152.175 Y55.414 E5.82212
G1 X154.68 Y55.02 E5.9402
G1 X157.167 Y54.558 E6.05799
G1 X159.681 Y54.017 E6.17773
G1 X162.127 Y53.418 E6.29499
G1 X164.571 Y52.745 E6.41303
G1 X167.006 Y52 E6.5316
G1 X169.408 Y51.189 E6.64965
G1 X171.821 Y50.299 E6.76941
G1 X174.128 Y49.373 E6.88517
G1 X176.5 Y48.34 E7.00563
G1 X178.977 Y47.178 E7.13304
G1 X179.938 Y46.713 E7.18275
G1 X180.768 Y46.356 E7.22482
G1 X181.626 Y46.074 E7.26687
G1 X182.505 Y45.869 E7.3089
G1 X183.4 Y45.742 E7.35099
G1 X184.091 Y45.699 E7.38323
G1 X184.698 Y45.686 E7.4115
G1 X263.807 Y45.687 E11.09515
G1 X264.505 Y45.697 E11.12765
G1 X265.407 Y45.75 E11.16973
G1 X266.3 Y45.882 E11.21176
G1 X267.178 Y46.093 E11.25381
G1 X268.034 Y46.381 E11.29586
G1 X268.861 Y46.743 E11.3379
G1 X269.653 Y47.178 E11.37997
G1 X270.404 Y47.68 E11.42204
G1 X271.107 Y48.247 E11.46409
G1 X271.757 Y48.874 E11.50615
G1 X272.349 Y49.556 E11.5482
G1 X272.879 Y50.287 E11.59024
G1 X273.341 Y51.063 E11.63229
G1 X273.734 Y51.876 E11.67434
G1 X274.052 Y52.721 E11.71638
G1 X274.295 Y53.591 E11.75844
G1 X274.46 Y54.479 E11.8005
G1 X274.555 Y55.609 E11.8533
G1 X274.568 Y56.216 E11.88157
G1 X274.567 Y165.328 E16.96229
G1 X274.549 Y166.495 E17.01663
G1 X274.491 Y168.549 E17.11231
G1 X274.482 Y169.869 E17.17378
G1 X274.481 Y277.568 E22.1887
G1 X274.47 Y278.295 E22.22255
G1 X274.416 Y279.197 E22.26463
G1 X274.283 Y280.09 E22.30667
G1 X274.071 Y280.968 E22.34873
G1 X273.783 Y281.824 E22.39078
G1 X273.42 Y282.651 E22.43284
G1 X272.985 Y283.442 E22.47487
G1 X272.482 Y284.192 E22.51692
G1 X271.915 Y284.895 E22.55898
G1 X271.287 Y285.545 E22.60106
G1 X270.605 Y286.136 E22.64308
G1 X269.873 Y286.665 E22.68514
G1 X269.097 Y287.127 E22.72719
G1 X268.283 Y287.519 E22.76926
G1 X267.438 Y287.837 E22.8113
G1 X266.568 Y288.079 E22.85335
G1 X265.68 Y288.243 E22.8954
G1 X264.559 Y288.337 E22.94778
G1 X263.952 Y288.35 E22.97605
G1 X184.844 Y288.349 E26.65965
G1 X184.141 Y288.339 E26.69239
G1 X183.239 Y288.286 E26.73446
G1 X182.346 Y288.154 E26.7765
G1 X181.468 Y287.943 E26.81854
G1 X180.612 Y287.655 E26.8606
G1 X179.785 Y287.293 E26.90263
G1 X178.993 Y286.859 E26.94469
G1 X178.242 Y286.357 E26.98675
G1 X177.878 Y286.076 E27.00816
G1 X175.702 Y284.319 E27.13839
G1 X173.653 Y282.761 E27.25825
G1 X171.625 Y281.306 E27.37447
G1 X169.493 Y279.867 E27.49424
G1 X167.372 Y278.521 E27.61122
G1 X165.161 Y277.204 E27.73105
G1 X162.964 Y275.979 E27.84818
G1 X160.694 Y274.794 E27.96742
G1 X158.43 Y273.694 E28.08462
G1 X156.14 Y272.66 E28.20162
G1 X153.711 Y271.646 E28.32418
G1 X151.416 Y270.762 E28.4387
G1 X148.988 Y269.905 E28.5586
G1 X146.579 Y269.131 E28.67642
G1 X144.135 Y268.421 E28.79492
G1 X141.701 Y267.788 E28.91203
G1 X139.187 Y267.21 E29.03215
G1 X136.723 Y266.716 E29.14917
G1 X134.199 Y266.284 E29.2684
G1 X131.717 Y265.932 E29.38513
G1 X129.158 Y265.641 E29.50506
G1 X126.677 Y265.431 E29.621
G1 X124.144 Y265.287 E29.73913
G1 X120.197 Y265.204 E29.92296
G1 X31.421 Y265.203 E34.05675
G1 X30.723 Y265.193 E34.08925
G1 X29.821 Y265.14 E34.13132
G1 X28.928 Y265.008 E34.17336
G1 X28.05 Y264.797 E34.2154
G1 X27.194 Y264.509 E34.25746
G1 X26.367 Y264.147 E34.2995
G1 X25.575 Y263.712 E34.34157
G1 X24.824 Y263.21 E34.38363
G1 X24.121 Y262.643 E34.42569
G1 X23.471 Y262.016 E34.46774
G1 X22.879 Y261.334 E34.50979
G1 X22.349 Y260.603 E34.55184
G1 X21.887 Y259.827 E34.59389
G1 X21.494 Y259.014 E34.63594
G1 X21.176 Y258.169 E34.67798
G1 X20.933 Y257.299 E34.72004
G1 X20.768 Y256.411 E34.7621
G1 X20.673 Y255.27 E34.81541
G1 X20.66 Y254.662 E34.84373
G1 X20.661 Y149.565 E39.73748
G1 X20.671 Y148.868 E39.76994
G1 X20.696 Y148.29 E39.79688
G1 X20.752 Y147.508 E39.83339
G1 X20.876 Y146.042 E39.9019
G1 X21.018 Y143.538 E40.01868
G1 X21.101 Y139.593 E40.20242
G1 X21.102 Y67.06 E43.57986
G1 X21.112 Y66.371 E43.61194
G1 X21.165 Y65.469 E43.65402
G1 X21.298 Y64.576 E43.69606
G1 X21.509 Y63.698 E43.7381
G1 X21.797 Y62.842 E43.78016
G1 X22.159 Y62.015 E43.82219
G1 X22.594 Y61.223 E43.86427
G1 X23.096 Y60.473 E43.90629
G1 X23.663 Y59.77 E43.94835
G1 X24.29 Y59.12 E43.9904
G1 X24.972 Y58.528 E44.03245
G1 X25.704 Y57.998 E44.07454
G1 X26.48 Y57.536 E44.11659
G1 X27.293 Y57.144 E44.15862
G0 F6000 X27.119 Y56.784
G1 F1200 X28.03 Y56.44 E44.20396
G1 X28.935 Y56.189 E44.24769
G1 X29.862 Y56.019 E44.29158
G1 X30.99 Y55.924 E44.34429
G1 X31.622 Y55.91 E44.37372
G1 X139.442 Y55.91 E49.39427
G1 X142.037 Y55.873 E49.51512
G1 X144.602 Y55.764 E49.63466
G1 X147.095 Y55.587 E49.75104
G1 X149.616 Y55.338 E49.869
G1 X152.124 Y55.017 E49.98674
G1 X154.618 Y54.625 E50.10429
G1 X157.082 Y54.167 E50.22099
G1 X159.586 Y53.628 E50.34026
G1 X162.032 Y53.029 E50.45752
G1 X164.465 Y52.36 E50.57502
G1 X166.878 Y51.621 E50.69253
G1 X169.28 Y50.81 E50.81058
G1 X171.672 Y49.928 E50.92929
G1 X173.968 Y49.006 E51.0445
G1 X176.34 Y47.973 E51.16497
G1 X178.807 Y46.816 E51.29185
G1 X179.78 Y46.346 E51.34216
G1 X180.643 Y45.976 E51.38589
G1 X181.535 Y45.684 E51.42959
G1 X182.414 Y45.479 E51.47162
G1 X183.375 Y45.343 E51.51681
G1 X184.082 Y45.299 E51.5498
G1 X184.698 Y45.286 E51.57849
G1 X263.813 Y45.287 E55.26241
G1 X264.528 Y45.298 E55.29571
G1 X265.465 Y45.354 E55.33942
G1 X266.358 Y45.486 E55.38145
G1 X267.306 Y45.714 E55.42685
G1 X268.162 Y46.002 E55.46891
G1 X269.054 Y46.392 E55.51424
G1 X269.846 Y46.827 E55.55632
G1 X270.626 Y47.347 E55.59997
G1 X271.385 Y47.959 E55.64537
G1 X272.035 Y48.586 E55.68742
G1 X272.673 Y49.321 E55.73274
G1 X273.223 Y50.082 E55.77646
G1 X273.685 Y50.858 E55.81851
G1 X274.108 Y51.735 E55.86385
G1 X274.437 Y52.613 E55.90751
G1 X274.688 Y53.518 E55.95124
G1 X274.859 Y54.445 E55.99514
G1 X274.954 Y55.575 E56.04794
G1 X274.968 Y56.216 E56.07779
G1 X274.967 Y165.334 E61.15879
G1 X274.949 Y166.506 E61.21337
G1 X274.891 Y168.56 E61.30905
G1 X274.882 Y169.872 E61.37014
G1 X274.881 Y277.574 E66.3852
G1 X274.869 Y278.319 E66.41989
G1 X274.812 Y279.256 E66.4636
G1 X274.679 Y280.149 E66.50564
G1 X274.46 Y281.062 E66.54936
G1 X274.162 Y281.952 E66.59307
G1 X273.786 Y282.812 E66.63677
G1 X273.317 Y283.665 E66.6821
G1 X272.814 Y284.415 E66.72415
G1 X272.203 Y285.173 E66.76948
G1 X271.575 Y285.823 E66.81157
G1 X270.867 Y286.438 E66.85524
G1 X270.078 Y287.009 E66.90059
G1 X269.302 Y287.471 E66.94264
G1 X268.424 Y287.893 E66.988
G1 X267.545 Y288.222 E67.0317
G1 X266.641 Y288.472 E67.07538
G1 X265.713 Y288.642 E67.11931
G1 X264.568 Y288.737 E67.17281
G1 X263.961 Y288.75 E67.20108
G1 X184.838 Y288.749 E70.88538
G1 X184.118 Y288.738 E70.91891
G1 X183.181 Y288.682 E70.96262
G1 X182.288 Y288.55 E71.00465
G1 X181.34 Y288.322 E71.05005
G1 X180.484 Y288.034 E71.09211
G1 X179.593 Y287.644 E71.13739
G1 X178.771 Y287.192 E71.18108
G1 X178.02 Y286.69 E71.22314
G1 X177.627 Y286.387 E71.24625
G1 X175.451 Y284.63 E71.37648
G1 X173.42 Y283.086 E71.49527
G1 X171.401 Y281.638 E71.61096
G1 X169.269 Y280.199 E71.73074
G1 X167.167 Y278.865 E71.84666
G1 X164.956 Y277.548 E71.96649
G1 X162.779 Y276.334 E72.08256
G1 X160.509 Y275.149 E72.2018
G1 X158.265 Y274.059 E72.31796
G1 X155.975 Y273.025 E72.43496
G1 X153.557 Y272.015 E72.55698
G1 X151.272 Y271.135 E72.671
G1 X148.866 Y270.286 E72.7898
G1 X146.457 Y269.512 E72.90762
G1 X144.028 Y268.806 E73.02541
G1 X141.611 Y268.178 E73.14169
G1 X139.097 Y267.6 E73.26181
G1 X136.644 Y267.108 E73.3783
G1 X134.143 Y266.68 E73.49645
G1 X131.661 Y266.328 E73.61318
G1 X129.124 Y266.04 E73.73207
G1 X126.643 Y265.829 E73.84802
G1 X124.136 Y265.687 E73.96494
G1 X120.189 Y265.604 E74.14877
G1 X31.415 Y265.603 E78.28246
G1 X30.7 Y265.592 E78.31576
G1 X29.763 Y265.536 E78.35946
G1 X28.87 Y265.404 E78.4015
G1 X27.922 Y265.176 E78.4469
G1 X27.066 Y264.888 E78.48895
G1 X26.174 Y264.498 E78.53429
G1 X25.382 Y264.063 E78.57636
G1 X24.602 Y263.543 E78.62001
G1 X23.843 Y262.931 E78.66541
G1 X23.193 Y262.304 E78.70747
G1 X22.555 Y261.569 E78.75279
G1 X22.005 Y260.808 E78.79651
G1 X21.543 Y260.032 E78.83856
G1 X21.12 Y259.155 E78.8839
G1 X20.791 Y258.277 E78.92756
G1 X20.54 Y257.372 E78.97129
G1 X20.369 Y256.444 E79.01523
G1 X20.273 Y255.279 E79.06966
G1 X20.26 Y254.662 E79.0984
G1 X20.261 Y149.559 E83.99243
G1 X20.271 Y148.851 E84.0254
G1 X20.297 Y148.261 E84.0529
G1 X20.353 Y147.474 E84.08964
G1 X20.478 Y146.008 E84.15815
G1 X20.618 Y143.53 E84.27372
G1 X20.701 Y139.585 E84.45746
G1 X20.702 Y67.054 E87.83481
G1 X20.713 Y66.348 E87.86768
G1 X20.769 Y65.41 E87.91144
G1 X20.902 Y64.517 E87.95348
G1 X21.13 Y63.57 E87.99884
G1 X21.418 Y62.714 E88.04089
G1 X21.808 Y61.822 E88.08622
G1 X22.243 Y61.03 E88.1283
G1 X22.785 Y60.222 E88.1736
G1 X23.375 Y59.492 E88.21731
G1 X24.002 Y58.842 E88.25936
G1 X24.737 Y58.204 E88.30468
G1 X25.499 Y57.654 E88.34844
G1 X26.275 Y57.192 E88.39049
G1 X27.119 Y56.784 E88.43414
G0 F6000 X26.945 Y56.424
G1 F1200 X27.923 Y56.055 E88.48282
G1 X28.863 Y55.796 E88.52822
G1 X29.828 Y55.62 E88.57389
G1 X30.956 Y55.525 E88.6266
G1 X31.613 Y55.51 E88.6572
G1 X139.436 Y55.51 E93.6779
G1 X142.02 Y55.473 E93.79823
G1 X144.585 Y55.364 E93.91777
G1 X147.064 Y55.188 E94.0335
G1 X149.565 Y54.941 E94.15052
G1 X152.073 Y54.62 E94.26826
G1 X154.556 Y54.23 E94.38529
G1 X156.996 Y53.776 E94.50086
G1 X159.491 Y53.239 E94.6197
G1 X161.937 Y52.64 E94.73696
G1 X164.359 Y51.975 E94.85391
G1 X166.75 Y51.242 E94.97036
G1 X169.152 Y50.431 E95.08841
G1 X171.523 Y49.557 E95.20608
G1 X173.808 Y48.639 E95.32074
G1 X176.18 Y47.606 E95.44121
G1 X178.637 Y46.454 E95.56757
G1 X179.622 Y45.978 E95.61851
G1 X180.485 Y45.608 E95.66223
G1 X181.444 Y45.294 E95.70922
G1 X182.323 Y45.089 E95.75125
G1 X183.35 Y44.944 E95.79955
G1 X184.074 Y44.899 E95.83332
G1 X184.698 Y44.886 E95.86239
G1 X263.819 Y44.887 E99.54659
G1 X264.552 Y44.899 E99.58073
G1 X265.523 Y44.958 E99.62602
G1 X266.452 Y45.097 E99.66976
G1 X267.4 Y45.325 E99.71517
G1 X268.322 Y45.635 E99.76046
G1 X269.247 Y46.041 E99.8075
G1 X270.039 Y46.476 E99.84957
G1 X270.848 Y47.014 E99.89481
G1 X271.663 Y47.671 E99.94356
G1 X272.313 Y48.298 E99.98561
G1 X272.975 Y49.059 E100.03258
G1 X273.567 Y49.877 E100.0796
G1 X274.029 Y50.653 E100.12165
G1 X274.483 Y51.595 E100.17034
G1 X274.812 Y52.473 E100.214
G1 X275.081 Y53.445 E100.26096
G1 X275.258 Y54.411 E100.30669
G1 X275.353 Y55.541 E100.35949
G1 X275.368 Y56.216 E100.39093
G1 X275.367 Y165.34 E105.4722
G1 X275.349 Y166.517 E105.52702
G1 X275.291 Y168.571 E105.6227
G1 X275.282 Y169.875 E105.68342
G1 X275.281 Y277.58 E110.69861
G1 X275.268 Y278.343 E110.73415
G1 X275.208 Y279.315 E110.77949
G1 X275.075 Y280.208 E110.82154
G1 X274.849 Y281.155 E110.86687
G1 X274.529 Y282.112 E110.91386
G1 X274.137 Y283.005 E110.95927
G1 X273.668 Y283.858 E111.0046
G1 X273.146 Y284.638 E111.0483
G1 X272.491 Y285.451 E111.09691
G1 X271.863 Y286.101 E111.139
G1 X271.102 Y286.762 E111.18593
G1 X270.283 Y287.353 E111.23296
G1 X269.507 Y287.815 E111.27502
G1 X268.564 Y288.268 E111.32373
G1 X267.652 Y288.608 E111.36905
G1 X266.748 Y288.858 E111.41273
G1 X265.746 Y289.041 E111.46015
G1 X264.577 Y289.137 E111.51477
G1 X263.97 Y289.15 E111.54304
G1 X184.832 Y289.149 E115.22804
G1 X184.094 Y289.137 E115.26241
G1 X183.123 Y289.078 E115.30771
G1 X182.194 Y288.939 E115.35144
G1 X181.246 Y288.711 E115.39685
G1 X180.356 Y288.413 E115.44055
G1 X179.4 Y287.995 E115.48913
G1 X178.578 Y287.543 E115.53282
G1 X177.798 Y287.023 E115.57647
G1 X177.376 Y286.698 E115.60127
G1 X175.2 Y284.941 E115.7315
G1 X173.187 Y283.411 E115.84923
G1 X171.177 Y281.97 E115.9644
G1 X169.045 Y280.531 E116.08417
G1 X166.962 Y279.209 E116.19905
G1 X164.751 Y277.892 E116.31888
G1 X162.594 Y276.689 E116.43388
G1 X160.324 Y275.504 E116.55312
G1 X158.1 Y274.424 E116.66824
G1 X155.81 Y273.389 E116.78526
G1 X153.403 Y272.384 E116.90672
G1 X151.128 Y271.508 E117.02023
G1 X148.744 Y270.667 E117.13795
G1 X146.335 Y269.893 E117.25577
G1 X143.921 Y269.191 E117.37283
G1 X141.521 Y268.568 E117.48829
G1 X139.007 Y267.99 E117.6084
G1 X136.565 Y267.5 E117.72438
G1 X134.087 Y267.076 E117.84144
G1 X131.605 Y266.724 E117.95817
G1 X129.09 Y266.439 E118.07603
G1 X126.609 Y266.227 E118.19198
G1 X124.128 Y266.087 E118.30769
G1 X120.181 Y266.004 E118.49152
G1 X31.409 Y266.003 E122.62511
G1 X30.676 Y265.991 E122.65925
G1 X29.705 Y265.932 E122.70455
G1 X28.776 Y265.793 E122.74829
G1 X27.828 Y265.565 E122.79369
G1 X26.906 Y265.255 E122.83898
G1 X25.981 Y264.849 E122.88602
G1 X25.189 Y264.414 E122.9281
G1 X24.38 Y263.876 E122.97333
G1 X23.565 Y263.219 E123.02208
G1 X22.915 Y262.592 E123.06413
G1 X22.253 Y261.831 E123.1111
G1 X21.661 Y261.013 E123.15812
G1 X21.199 Y260.237 E123.20017
G1 X20.745 Y259.295 E123.24886
G1 X20.416 Y258.417 E123.29252
G1 X20.147 Y257.444 E123.33953
G1 X19.97 Y256.477 E123.3853
G1 X19.874 Y255.312 E123.43974
G1 X19.86 Y254.662 E123.47001
G1 X19.861 Y149.553 E128.36432
G1 X19.871 Y148.833 E128.39785
G1 X19.898 Y148.233 E128.42582
G1 X19.954 Y147.44 E128.46284
G1 X20.08 Y145.974 E128.53135
G1 X20.218 Y143.522 E128.64571
G1 X20.301 Y139.577 E128.82945
G1 X20.302 Y67.048 E132.2067
G1 X20.314 Y66.324 E132.24042
G1 X20.373 Y65.351 E132.28581
G1 X20.506 Y64.458 E132.32785
G1 X20.741 Y63.476 E132.37486
G1 X21.051 Y62.554 E132.42016
G1 X21.457 Y61.629 E132.4672
G1 X21.892 Y60.837 E132.50927
G1 X22.453 Y59.999 E132.55623
G1 X23.087 Y59.214 E132.60321
G1 X23.714 Y58.564 E132.64527
G1 X24.503 Y57.88 E132.69389
G1 X25.294 Y57.31 E132.73929
G1 X26.07 Y56.848 E132.78134
G1 X26.945 Y56.424 E132.82662
G1 F2700 E127.82662
;MESH:BoxLeft.STL
G0 F6000 X72.015 Y97.294
G0 X74.658 Y100.908
;TYPE:WALL-INNER
G1 F2700 E132.82662
G1 F1200 X74.311 Y101.025 E132.84367
G1 X73.978 Y101.082 E132.8594
G1 X73.584 Y101.082 E132.87775
G1 X73.219 Y101.017 E132.89501
G1 X72.904 Y100.908 E132.91053
G1 X72.57 Y100.727 E132.92822
G1 X72.275 Y100.495 E132.9457
G1 X72.002 Y100.185 E132.96493
G1 X71.829 Y99.907 E132.98018
G1 X71.678 Y99.538 E132.99874
G1 X71.599 Y99.17 E133.01627
G1 X71.583 Y98.793 E133.03384
G1 X71.624 Y98.452 E133.04983
G1 X71.744 Y98.055 E133.06914
G1 X71.92 Y97.716 E133.08693
G1 X72.146 Y97.419 E133.10431
G1 X72.419 Y97.162 E133.12177
G1 X72.712 Y96.962 E133.13829
G1 X73.064 Y96.81 E133.15614
G1 X73.39 Y96.725 E133.17183
G1 X73.763 Y96.69 E133.18927
G1 X74.172 Y96.725 E133.20839
G1 X74.498 Y96.81 E133.22407
G1 X74.85 Y96.962 E133.24193
G1 X75.143 Y97.162 E133.25844
G1 X75.416 Y97.419 E133.2759
G1 X75.642 Y97.716 E133.29328
G1 X75.819 Y98.057 E133.31117
G1 X75.939 Y98.458 E133.33066
G1 X75.979 Y98.784 E133.34596
G1 X75.964 Y99.161 E133.36352
G1 X75.886 Y99.53 E133.38109
G1 X75.749 Y99.877 E133.39846
G1 X75.551 Y100.203 E133.41622
G1 X75.319 Y100.465 E133.43251
G1 X75.039 Y100.696 E133.44942
G1 X74.658 Y100.908 E133.46972
G1 F2700 E128.46972
G0 F6000 X73.987 Y101.265
G0 X74.199 Y124.022
G0 X74.687 Y128.374
G1 F2700 E133.46972
G1 F1200 X74.338 Y128.494 E133.4869
G1 X73.971 Y128.558 E133.50425
G1 X73.591 Y128.558 E133.52194
G1 X73.227 Y128.498 E133.53912
G1 X72.876 Y128.372 E133.55649
